X: 33537
T: Rainy Day, The
R: reel
M: 4/4
K: Adorian
|:EAAG AAAG|B/c/d ed gedc|BGGF GGdG|GGdG eGdG|
EAAG AAAB|cBAB cdef|ggge dBGA|AGdB AAAG:|
|:eaag aaaa|baaa bz ag|eggf ggga|bggg bgag|
eaaa aged|B/c/d ef gz ag|eaag e/f/g dG|1 AGdB AAAd:|2 AGdB AAAG||

